lib/brands/icons/aws-lambda.svg

<svg xmlns="http://www.w3.org/2000/svg" fill="none" aria-hidden="true" viewBox="0 0 48 48"><g id="aws-lambda-Icon"><g id="Group"><path id="Vector" fill="#9D5025" d="M9.1001 34.55L11.0001 35.5L11.3118 34.9465V12.9067L11.0001 12.5L9.1001 13.45V34.55Z"/><path id="Vector_2" fill="#F68536" d="M14.65 13.3999L11 12.5V35.5L14.65 34.65V13.3999Z"/><path id="Vector_3" fill="#6B3A19" d="M25.8501 15.15L28.45 13.8L37.1001 17.15L34.8001 17.45L25.8501 15.15Z"/><path id="Vector_4" fill="#FBBF93" d="M25.9502 32.8501L28.5002 34.2001L37.1501 30.8501L34.8501 30.55L25.9502 32.8501Z"/><path id="Vector_5" fill="#9D5025" d="M26.6001 29.1499L31.1501 29.75L31.4113 29.2812V18.8047L31.1501 18.25L26.6001 18.85V29.1499Z"/><path id="Vector_6" fill="#9D5025" d="M13.25 11.35L16.05 9.95001L16.3559 10.5398V37.4297L16.05 38.05L13.25 36.65V11.35Z"/><path id="Vector_7" fill="#F68536" d="M21.7502 36.15L16.0503 37.9999V9.95001L21.7502 11.8001V36.15Z"/><path id="Vector_8" fill="#9D5025" d="M19.5503 39.75L24.0003 42L24.4659 41.4651V6.65967L24.0003 6L19.5503 8.25001V39.75Z"/><path id="Vector_9" fill="#9D5025" d="M34.7002 17.4499L37.0003 17.15L37.1978 17.4369V30.5617L37.0003 30.9L34.7002 30.6V17.4499Z"/><path id="Vector_10" fill="#F68536" d="M31.1499 18.25V29.7999L35.8999 24L31.1499 18.25Z"/><path id="Vector_11" fill="#F68536" d="M37 12.5L24 6V42L38.9 34.55V13.45L37 12.5ZM37 30.9174L28.45 33.4709V14.5291L37 17.0826V30.9174Z"/></g></g></svg>

<svg xmlns="http://www.w3.org/2000/svg" fill="none" aria-hidden="true" viewBox="0 0 48 48"><path fill="#9D5025" d="m9.1 34.55 1.9.95.312-.553v-22.04L11 12.5l-1.9.95v21.1Z"/><path fill="#F68536" d="M14.65 13.4 11 12.5v23l3.65-.85V13.4Z"/><path fill="#6B3A19" d="m25.85 15.15 2.6-1.35 8.65 3.35-2.3.3-8.95-2.3Z"/><path fill="#FBBF93" d="m25.95 32.85 2.55 1.35 8.65-3.35-2.3-.3-8.9 2.3Z"/><path fill="#9D5025" d="m26.6 29.15 4.55.6.261-.469V18.805l-.26-.555-4.55.6v10.3Zm-13.35-17.8 2.8-1.4.306.59v26.89l-.306.62-2.8-1.4v-25.3Z"/><path fill="#F68536" d="M21.75 36.15 16.05 38V9.95l5.7 1.85v24.35Z"/><path fill="#9D5025" d="M19.55 39.75 24 42l.466-.535V6.66L24 6l-4.45 2.25v31.5Zm15.15-22.3 2.3-.3.198.287v13.125L37 30.9l-2.3-.3V17.45Z"/><path fill="#F68536" d="M31.15 18.25V29.8L35.9 24l-4.75-5.75Z"/><path fill="#F68536" d="M37 12.5 24 6v36l14.9-7.45v-21.1L37 12.5Zm0 18.417-8.55 2.554V14.529L37 17.083v13.834Z"/></svg>
